X: 1
T:A.B.Hornpipe. WM049
M:C
L:1/8
Q:200
S:Wm.Mittell,1799
R:Hornpipe
O:England
A:Kent
Z:C.G.P
K:D
AG|FdAd fdAF|GBefg2ef|gfgf eded|cdcB AGFE|DFAd fdAF|!GBefg2ef|gfed cdec|
d2d2d2:|
|:d2|Add2fdd2|gee2cAA2|!cee2cee2|gfed cBAG|FdAd fdAF|GdBd|gdBG|gfed cdec
|d2d2d2:|]
